X: 597
T: Pot Stick
T: The Shamboy
N: Pub: J. Walsh, London, 1748
S: 2: CCD2  http://petrucci.mus.auth.gr/imglnks/usimg/6/61/IMSLP173105-PMLP149069-caledoniancountr00ingl.pdf p.75 #335
S: 4: ACMV  http://archive.org/details/acompositemusicv01rugg p.4:75 #335
Z: 2012 John Chambers <jc:trillian.mit.edu>
N: The 2nd part has a begin-repeat but no end-repeat.
M: 6/8
L: 1/8
K: D
% - - - - - - - - - - - - - - - - - - - - - - - - -
V: 1
|:\
D2A AFA | B/c/dF E2D | D2A AFA | B3 d3 :|\
|:\
d/e/fd ecA | B/c/dF E2D |
d/e/fd ecA | B3 d3 |\
d/e/fd ecA | B/c/dF E2D | DFA AFA | B3 d3 |]
% - - - - - - - - - - - - - - - - - - - - - - - - -
V: 2 clef=bass middle=d
|:\
d3  d3  | g2z a2d | d3  d3  | g3 d3 :|
|:\
d3  a3  | g2z a2d | d2z a2z | g3 d3 |
d2z a2z | g2z a2d | d2z d2z | g3 d3 |]
% - - - - - - - - - - - - - - - - - - - - - - - - -
%%begintext align
%% The 1st Cu foot it 2 and cast off one Cu. .|
%% then foot it and cast up then cross over,
%% and half figure, and Right hands and Left.
%%endtext

%%sep 1 1 500
%%sep 1 1 500
